X: 6187
T: Carbray's Frolics
R: jig
M: 6/8
K: Dmajor
|:d|c2 A B2 d|AGF E2 D|EFE E2 D|EFE E2 d|
c2 A B2 d|AGF E2 F|DED GEF|DED D2:|
|:F|A2 ^G AFD|FED A2 D|EFE E2 D|EFE E2 F|
A2 B AFD|FED A2 F|DED GEF|DED D2:|

